src/assets/Icon-Download.svg

<?xml version="1.0" encoding="utf-8"?>
<svg  viewBox="0 0 100 100" version="1.1" xmlns="http://www.w3.org/2000/svg" xmlns:xlink="http://www.w3.org/1999/xlink"  style="enable-background:new 0 0 100 100;fill-rule:evenodd;clip-rule:evenodd;stroke-linejoin:round;stroke-miterlimit:2;" x="0px" y="0px" >
        <path d="M83.077,56.3C80.677,56.3 78.677,58.3 78.677,60.7L78.677,81.3L21.255,81.3L21.255,60.6C21.255,58.2 19.255,56.2 16.855,56.2C14.455,56.2 12.455,58.2 12.455,60.6L12.455,90L87.377,90L87.377,60.6C87.477,58.2 85.477,56.3 83.077,56.3Z" style="fill-rule:nonzero;"/>
        <g transform="matrix(1,0,0,1,0,-2.31909)">
            <path d="M46.9,67.2L50,70.6L77.9,40.6C79.6,38.8 79.5,36.1 77.7,34.4C75.9,32.7 73.2,32.8 71.5,34.6L54.4,53L54.4,14.4C54.4,12 52.4,10 50,10C47.6,10 45.6,12 45.6,14.4L45.6,53L28.6,34.7C26.9,32.9 24.2,32.8 22.4,34.5C20.6,36.1 20.5,38.9 22.2,40.7L46.9,67.2Z" style="fill-rule:nonzero;"/>
        </g>
</svg>

<?xml version="1.0" encoding="utf-8"?>
<!-- Generator: Adobe Illustrator 21.1.0, SVG Export Plug-In . SVG Version: 6.00 Build 0)  -->
<svg version="1.1" id="Ebene_1" xmlns="http://www.w3.org/2000/svg" xmlns:xlink="http://www.w3.org/1999/xlink" x="0px" y="0px"
	 viewBox="0 0 100 100" style="enable-background:new 0 0 100 100;" xml:space="preserve">
<g>
	<path d="M86.7,56.3c-2.4,0-4.4,2-4.4,4.4v20.6H17.7V60.6c0-2.4-2-4.4-4.4-4.4c-2.4,0-4.4,2-4.4,4.4V90h82.1V60.6
		C91.1,58.2,89.1,56.3,86.7,56.3z"/>
	<path d="M46.9,67.2C46.9,67.2,46.9,67.3,46.9,67.2l3.1,3.4l27.9-30c1.7-1.8,1.6-4.5-0.2-6.2c-1.8-1.7-4.5-1.6-6.2,0.2L54.4,53V14.4
		c0-2.4-2-4.4-4.4-4.4s-4.4,2-4.4,4.4V53L28.6,34.7c-1.7-1.8-4.4-1.9-6.2-0.2c-1.8,1.6-1.9,4.4-0.2,6.2L46.9,67.2z"/>
</g>
</svg>
